usr/share/icons/biglinux-icons-material-dark/symbolic/actions/insert-endnote.svg

<svg xmlns="http://www.w3.org/2000/svg" viewBox="0 0 16 16">
<defs id="defs3051">
<style id="current-color-scheme" type="text/css">
.ColorScheme-Contrast{color:#dedede}.ColorScheme-Highlight{color:#3daee9}
</style>
</defs>
<path d="M2 2v10h2v2h7v-1H5v-1h6V5h2v2h1V4h-3V2zm1 1h7v8H3zm1 1v1h5V4zm0 2v1h3V6z" class="ColorScheme-Contrast" style="fill:currentColor;fill-opacity:1;stroke:none"/>
<path d="M13 8v1h1V8zM4 9v1h4V9zm9 1v4h1v-4z" class="ColorScheme-Highlight" style="fill:currentColor;fill-opacity:1;stroke:none"/>
</svg>

<svg xmlns="http://www.w3.org/2000/svg" viewBox="0 0 16 16">
  <defs id="defs3051">
    <style type="text/css" id="current-color-scheme">
      .ColorScheme-Text {
        color:#dedede;
      }
      .ColorScheme-Highlight {
        color:#3daee9;
      }
      </style>
  </defs>
  <path 
        style="fill:currentColor;fill-opacity:1;stroke:none"
        d="M 2 2 L 2 9 L 2 10 L 2 11 L 2 12 L 4 12 L 4 14 L 11 14 L 11 13 L 5 13 L 5 12 L 11 12 L 11 11 L 11 9 L 11 5 L 13 5 L 13 7 L 14 7 L 14 4 L 11 4 L 11 2 L 3 2 L 2 2 z M 3 3 L 10 3 L 10 10 L 10 11 L 3 11 L 3 10 L 3 9 L 3 3 z M 4 4 L 4 5 L 9 5 L 9 4 L 4 4 z M 4 6 L 4 7 L 7 7 L 7 6 L 4 6 z "
        class="ColorScheme-Text"
        />
  <path 
        style="fill:currentColor;fill-opacity:1;stroke:none"
        d="M 13 8 L 13 9 L 14 9 L 14 8 L 13 8 z M 4 9 L 4 10 L 8 10 L 8 9 L 4 9 z M 13 10 L 13 14 L 14 14 L 14 10 L 13 10 z "
        class="ColorScheme-Highlight"
        />
</svg>
